icons/cuda-light.svg

<svg width="256" height="256" viewBox="0 0 256 256" fill="none" xmlns="http://www.w3.org/2000/svg">
<g clip-path="url(#clip0_1_32)">
<path d="M196.005 0.0110474H60.0054C26.8683 0.0110474 0.00537109 26.8739 0.00537109 60.011V196.011C0.00537109 229.148 26.8683 256.011 60.0054 256.011H196.005C229.142 256.011 256.005 229.148 256.005 196.011V60.011C256.005 26.8739 229.142 0.0110474 196.005 0.0110474Z" fill="#F4F2ED"/>
<path d="M77.614 220.547C76.3783 221.086 75.255 221.592 74.2441 222.063C73.2556 222.535 71.9525 223.029 70.3349 223.546C68.9645 223.973 67.4705 224.332 65.8529 224.624C64.2578 224.939 62.4942 225.096 60.5622 225.096C56.9226 225.096 53.6089 224.591 50.6209 223.58C47.6553 222.546 45.0717 220.94 42.87 218.761C40.7133 216.627 39.0283 213.919 37.8152 210.639C36.602 207.337 35.9954 203.506 35.9954 199.148C35.9954 195.014 36.5795 191.318 37.7478 188.061C38.916 184.803 40.601 182.051 42.8026 179.804C44.9369 177.625 47.5093 175.963 50.5198 174.817C53.5527 173.671 56.9114 173.098 60.5959 173.098C63.2918 173.098 65.9765 173.424 68.65 174.076C71.3459 174.727 74.3339 175.873 77.614 177.513V185.432H77.1085C74.3452 183.118 71.6043 181.433 68.8859 180.377C66.1675 179.321 63.2581 178.793 60.1578 178.793C57.6191 178.793 55.3275 179.209 53.2831 180.04C51.2612 180.849 49.4526 182.118 47.8575 183.848C46.3074 185.533 45.0942 187.668 44.218 190.251C43.3643 192.812 42.9374 195.778 42.9374 199.148C42.9374 202.675 43.4092 205.708 44.3528 208.247C45.3189 210.785 46.5545 212.852 48.0597 214.447C49.6324 216.11 51.4634 217.345 53.5527 218.154C55.6645 218.941 57.8887 219.334 60.2252 219.334C63.4378 219.334 66.4483 218.783 69.2566 217.682C72.0648 216.582 74.6934 214.93 77.1422 212.729H77.614V220.547ZM124.827 204.034C124.827 207.674 124.422 210.853 123.613 213.571C122.827 216.267 121.524 218.514 119.704 220.311C117.974 222.018 115.953 223.265 113.639 224.052C111.324 224.838 108.629 225.231 105.551 225.231C102.405 225.231 99.6645 224.815 97.3281 223.984C94.9916 223.153 93.0258 221.929 91.4307 220.311C89.6109 218.469 88.2967 216.245 87.4879 213.639C86.7016 211.032 86.3084 207.831 86.3084 204.034V174.008H92.9808V204.371C92.9808 207.09 93.1606 209.235 93.52 210.808C93.902 212.38 94.531 213.807 95.4072 215.088C96.3957 216.548 97.7325 217.649 99.4174 218.39C101.125 219.131 103.169 219.502 105.551 219.502C107.955 219.502 109.999 219.143 111.684 218.424C113.369 217.682 114.717 216.57 115.728 215.088C116.604 213.807 117.222 212.347 117.581 210.707C117.963 209.044 118.154 206.989 118.154 204.54V174.008H124.827V204.034ZM179.959 199.148C179.959 203.708 178.959 207.842 176.959 211.549C174.982 215.256 172.343 218.132 169.04 220.176C166.749 221.592 164.187 222.614 161.357 223.243C158.548 223.872 154.841 224.186 150.236 224.186H137.565V174.008H150.101C154.999 174.008 158.885 174.368 161.761 175.087C164.659 175.783 167.108 176.749 169.107 177.985C172.522 180.119 175.185 182.961 177.094 186.511C179.004 190.06 179.959 194.273 179.959 199.148ZM172.983 199.047C172.983 195.115 172.298 191.801 170.927 189.106C169.557 186.41 167.512 184.287 164.794 182.736C162.817 181.613 160.716 180.838 158.492 180.411C156.268 179.962 153.606 179.737 150.505 179.737H144.237V218.458H150.505C153.718 218.458 156.515 218.222 158.897 217.75C161.3 217.278 163.502 216.402 165.502 215.121C167.995 213.526 169.86 211.426 171.096 208.82C172.354 206.213 172.983 202.956 172.983 199.047ZM230.305 224.186H223.195L218.275 210.201H196.572L191.652 224.186H184.879L203.144 174.008H212.04L230.305 224.186ZM216.219 204.472L207.424 179.838L198.594 204.472H216.219Z" fill="black"/>
<path d="M46.6792 86.2629C46.6792 86.2629 65.2508 58.8618 102.332 56.0271V46.086C61.2598 49.3846 25.6929 84.1708 25.6929 84.1708C25.6929 84.1708 45.8374 142.405 102.332 147.737V137.171C60.8736 131.955 46.6792 86.2629 46.6792 86.2629ZM102.332 116.156V125.833C70.9987 120.247 62.3013 87.6757 62.3013 87.6757C62.3013 87.6757 77.3458 71.0096 102.332 68.3069V78.9255C102.313 78.9255 102.3 78.919 102.284 78.919C89.1701 77.3453 78.9254 89.5962 78.9254 89.5962C78.9254 89.5962 84.6675 110.221 102.332 116.156ZM102.332 27.7497L102.332 46.086C103.538 45.9936 104.744 45.9145 105.956 45.8732C152.651 44.2995 183.075 84.1701 183.075 84.1701C183.075 84.1701 148.132 126.661 111.726 126.661C108.39 126.661 105.266 126.352 102.332 125.832L102.332 137.171C104.841 137.489 107.442 137.676 110.156 137.676C144.034 137.676 168.534 120.374 192.256 99.8971C196.19 103.047 212.292 110.71 215.602 114.065C193.046 132.949 140.478 148.172 110.676 148.172C107.803 148.172 105.044 147.999 102.332 147.737L102.332 163.669H231.099V27.7497H102.332ZM102.332 68.3069V56.0271C103.525 55.9437 104.728 55.8794 105.956 55.8407C139.534 54.786 161.563 84.6958 161.563 84.6958C161.563 84.6958 137.77 117.742 112.258 117.742C108.586 117.742 105.295 117.152 102.332 116.156V78.9255C115.404 80.505 118.034 86.2787 125.893 99.3796L143.372 84.6414C143.372 84.6414 130.613 67.9076 109.104 67.9076C106.766 67.9068 104.529 68.0716 102.332 68.3069Z" fill="#77B900"/>
</g>
<defs>
<clipPath id="clip0_1_32">
<rect width="256" height="256" fill="white"/>
</clipPath>
</defs>
</svg>

<svg xmlns="http://www.w3.org/2000/svg" width="256" height="256" fill="none"><g clip-path="url(#clip0_1_32)"><path fill="#F4F2ED" d="M196.005.011h-136c-33.137 0-60 26.863-60 60v136c0 33.137 26.863 60 60 60h136c33.137 0 60-26.863 60-60v-136c0-33.137-26.863-60-60-60"/><path fill="#000" d="M77.614 220.547a150 150 0 0 0-3.37 1.516q-1.482.708-3.91 1.483-2.055.64-4.481 1.078-2.393.472-5.29.472-5.46 0-9.942-1.516-4.45-1.55-7.751-4.819-3.236-3.201-5.055-8.122-1.82-4.953-1.82-11.491 0-6.201 1.753-11.087t5.055-8.257q3.2-3.268 7.717-4.987 4.549-1.719 10.076-1.719 4.043 0 8.054.978 4.044.977 8.964 3.437v7.919h-.505q-4.146-3.471-8.223-5.055t-8.728-1.584q-3.808 0-6.875 1.247-3.033 1.213-5.425 3.808-2.326 2.528-3.64 6.403-1.28 3.842-1.28 8.897 0 5.29 1.415 9.099 1.449 3.807 3.707 6.2a14.9 14.9 0 0 0 5.493 3.707q3.167 1.18 6.672 1.18 4.819 0 9.032-1.652 4.212-1.65 7.885-4.953h.472zm47.213-16.513q0 5.46-1.214 9.537-1.179 4.044-3.909 6.74a15.74 15.74 0 0 1-6.065 3.741q-3.472 1.179-8.088 1.179-4.718 0-8.223-1.247-3.504-1.246-5.897-3.673-2.73-2.763-3.943-6.672-1.18-3.91-1.18-9.605v-30.026h6.673v30.363q0 4.078.539 6.437a12.9 12.9 0 0 0 1.887 4.28q1.484 2.19 4.01 3.302 2.561 1.112 6.134 1.112 3.606 0 6.133-1.078 2.528-1.113 4.044-3.336 1.314-1.921 1.853-4.381.573-2.494.573-6.167v-30.532h6.673zm55.132-4.886q0 6.84-3 12.401-2.965 5.56-7.919 8.627-3.437 2.124-7.683 3.067-4.213.943-11.121.943h-12.671v-50.178h12.536q7.346 0 11.66 1.079 4.347 1.044 7.346 2.898 5.123 3.201 7.987 8.526 2.865 5.324 2.865 12.637m-6.976-.101q0-5.898-2.056-9.941t-6.133-6.37a20.5 20.5 0 0 0-6.302-2.325q-3.336-.674-7.987-.674h-6.268v38.721h6.268q4.82 0 8.392-.708 3.605-.708 6.605-2.629 3.74-2.392 5.594-6.301 1.887-3.91 1.887-9.773m57.322 25.139h-7.11l-4.92-13.985h-21.703l-4.92 13.985h-6.773l18.265-50.178h8.896zm-14.086-19.714-8.795-24.634-8.83 24.634z"/><path fill="#77B900" d="M46.68 86.263s18.57-27.401 55.652-30.236v-9.941c-41.072 3.299-76.64 38.085-76.64 38.085s20.145 58.234 76.64 63.566v-10.566c-41.458-5.216-55.653-50.908-55.653-50.908m55.652 29.893v9.677c-31.333-5.586-40.03-38.157-40.03-38.157s15.044-16.666 40.03-19.37v10.62c-.019 0-.032-.007-.048-.007-13.114-1.574-23.359 10.677-23.359 10.677s5.743 20.625 23.407 26.56m0-88.406v18.336a86 86 0 0 1 3.624-.213C152.65 44.3 183.074 84.17 183.074 84.17s-34.943 42.491-71.349 42.491c-3.336 0-6.46-.309-9.394-.829v11.339c2.509.318 5.11.505 7.824.505 33.878 0 58.378-17.302 82.1-37.779 3.934 3.15 20.036 10.813 23.346 14.168-22.556 18.884-75.124 34.107-104.926 34.107-2.873 0-5.632-.173-8.344-.435v15.932h128.767V27.749zm0 40.557v-12.28a95 95 0 0 1 3.624-.186c33.578-1.055 55.607 28.855 55.607 28.855s-23.793 33.046-49.305 33.046c-3.672 0-6.963-.59-9.926-1.586v-37.23c13.072 1.579 15.702 7.353 23.561 20.454l17.479-14.739s-12.759-16.733-34.268-16.733c-2.338-.001-4.575.164-6.772.399"/></g><defs><clipPath id="clip0_1_32"><path fill="#fff" d="M0 0h256v256H0z"/></clipPath></defs></svg>
